X: 42418
T: West End, The
R: hornpipe
M: 4/4
K: Dmajor
|:A>G|(3FED F>A d3 A|(3Bcd e>f g>fg>e|(3fga f>d e>ge>d|c2 A2 A>BA>G|
(3FED F>A d3 A|(3Bcd e>f g>fg>e|(3fga f>d e>ge>c|1 d2 d>c d>B:|2 d2 d>c d>e||
|:f>g|a>f[fd]>f a>f[fd]>f|g>e[=ce]>e g>e[=ce]>e|a>f[fd]>f a>f[fd]>f|e2 A2 A2 A>G|
(3FED F>A d3 A|(3Bcd e>f g>fg>e|(3fga f>d e>ge>c|1 d2 d>c d>e:|2 d2 d>c d>B||

